packages/kaspersky-hexa-ui-icons/src/iconsSVGs/48/Question.svg

<svg width="48" height="48" viewBox="0 0 48 48" fill="none" xmlns="http://www.w3.org/2000/svg">
<path d="M23 30C23 27.1678 23.911 25.5862 26.2786 23.12L26.4926 22.8972C28.3841 20.9262 29 19.8752 29 18C29 15.2386 26.7614 13 24 13C21.2386 13 19 15.2386 19 18H17C17 14.134 20.134 11 24 11C27.866 11 31 14.134 31 18C31 20.5267 30.1538 21.9706 27.9356 24.282L27.7214 24.505C25.679 26.6325 25 27.8113 25 30H23Z" fill="#087BB5"/>
<path d="M25 36V34H23V36H25Z" fill="#087BB5"/>
<path fill-rule="evenodd" clip-rule="evenodd" d="M0 24C0 37.2548 10.7452 48 24 48C37.2548 48 48 37.2548 48 24C48 10.7452 37.2548 0 24 0C10.7452 0 0 10.7452 0 24ZM46 24C46 36.1503 36.1503 46 24 46C11.8497 46 2 36.1503 2 24C2 11.8497 11.8497 2 24 2C36.1503 2 46 11.8497 46 24Z" fill="#087BB5"/>
</svg>

<svg xmlns="http://www.w3.org/2000/svg" width="48" height="48" fill="none" viewBox="0 0 48 48"><path fill="#087bb5" d="M23 30c0-2.832.911-4.414 3.279-6.88l.214-.223C28.384 20.926 29 19.875 29 18c0-2.761-2.239-5-5-5s-5 2.239-5 5h-2c0-3.866 3.134-7 7-7s7 3.134 7 7c0 2.527-.846 3.971-3.064 6.282l-.214.223C25.679 26.633 25 27.811 25 30zm2 6v-2h-2v2z"/><path fill="#087bb5" fill-rule="evenodd" d="M0 24c0 13.2548 10.7452 24 24 24s24-10.7452 24-24S37.2548 0 24 0 0 10.7452 0 24m46 0c0 12.1503-9.8497 22-22 22S2 36.1503 2 24 11.8497 2 24 2s22 9.8497 22 22" clip-rule="evenodd"/></svg>
